images/transit/streetcar-outbound.svg

<?xml version="1.0" standalone="no"?><!DOCTYPE svg PUBLIC "-//W3C//DTD SVG 1.1//EN" "http://www.w3.org/Graphics/SVG/1.1/DTD/svg11.dtd"><svg width="288px" height="432px" version="1.1" xmlns="http://www.w3.org/2000/svg" xmlns:xlink="http://www.w3.org/1999/xlink" xml:space="preserve" style="fill-rule:evenodd;clip-rule:evenodd;stroke-linejoin:round;stroke-miterlimit:1.41421;"><g><g id="streetcar-outbound" transform="matrix(1,0,0,1,0,-168)"><g transform="matrix(1,0,0,1,-251.479,57.0752)"><path d="M353.09,230.668l33.084,65.334l5.25,0l-33,-65.334" style="fill:#2a2b2a;fill-rule:nonzero;"/></g><g transform="matrix(1,0,0,1,-251.479,57.0752)"><path d="M436.424,230.668l-33.084,65.334l-5.25,0l33,-65.334" style="fill:#2a2b2a;fill-rule:nonzero;"/></g><g transform="matrix(1,0,0,1,-251.479,57.0752)"><path d="M430.998,232.75l30.312,0.25l5.46,11.821l5.229,-0.633l-8.022,-16.26l-138.2,0l-8.022,16.26l5.228,0.633l5.461,-11.821l24.312,-0.25" style="fill:#2a2b2a;fill-rule:nonzero;"/></g><g transform="matrix(1,0,0,1,-251.479,57.0752)"><path d="M490.286,360.847l21.376,-1.11l0.211,7.823l4.228,-0.635l-0.023,-13.259l-26.004,2.742l0.212,4.439Z" style="fill:#f3f2ec;fill-rule:nonzero;"/></g><g transform="matrix(1,0,0,1,-251.479,57.0752)"><path d="M519.273,366.29l-0.847,21.338l-15.01,2.113l-2.748,-20.49l18.605,-2.961Z" style="fill:#f3f2ec;fill-rule:nonzero;"/></g><g transform="matrix(1,0,0,1,-251.479,57.0752)"><path d="M515.284,384.857l-8.524,1.213l-2.334,-13.796l11.191,-1.906l-0.333,14.489Z" style="fill:#c0bdba;fill-rule:nonzero;"/></g><g transform="matrix(1,0,0,1,-251.479,57.0752)"><path d="M300.671,360.847l-21.376,-1.11l-0.21,7.823l-4.229,-0.635l0.022,-13.259l26.005,2.742l-0.212,4.439Z" style="fill:#f3f2ec;fill-rule:nonzero;"/></g><g transform="matrix(1,0,0,1,-251.479,57.0752)"><path d="M271.684,366.29l0.847,21.338l15.01,2.113l2.749,-20.49l-18.606,-2.961Z" style="fill:#f3f2ec;fill-rule:nonzero;"/></g><g transform="matrix(1,0,0,1,-251.479,57.0752)"><path d="M275.787,385.191l8.55,1.162l2.034,-14.067l-10.667,-1.834l0.083,14.739Z" style="fill:#c0bdba;fill-rule:nonzero;"/></g><g transform="matrix(1,0,0,1,-251.479,57.0752)"><path d="M452.777,542.925l-11.451,0l0.233,-24.411l13.159,0.211l-1.941,24.2Z" style="fill:#5c5e5f;fill-rule:nonzero;"/></g><g transform="matrix(1,0,0,1,-251.479,57.0752)"><path d="M339.271,542.925l11.451,0l0.017,-22.161l-13.159,0.211l1.691,21.95Z" style="fill:#5c5e5f;fill-rule:nonzero;"/></g><g transform="matrix(1,0,0,1,-251.479,57.0752)"><path d="M304.037,517.525l0.539,11.79l182.478,0.23l0.638,-12.02l-90.991,-18.002l-92.664,18.002Z" style="fill:#2a2b2a;fill-rule:nonzero;"/></g><g transform="matrix(1,0,0,1,-251.479,57.0752)"><path d="M487.106,484.784l-3.526,3.041l-170.389,0.043l-4.743,-3.303l178.658,0.219Z" style="fill:#000;fill-rule:nonzero;"/></g><g transform="matrix(1,0,0,1,-251.479,57.0752)"><path d="M419.515,309.358l-5.674,-13.334l-37.953,0l-4.673,13.334l48.3,0Z" style="fill:#f3f2ec;fill-rule:nonzero;"/></g><g transform="matrix(1,0,0,1,-251.479,57.0752)"><path d="M295.534,329.69l5.139,91.417l190.026,-0.25l5.001,-91.333l-20.75,-21l-158.081,-0.334l-21.335,21.5Z" style="fill:#88ba6a;fill-rule:nonzero;"/></g><g transform="matrix(1,0,0,1,-251.479,57.0752)"><path d="M494.825,350.648l-198.375,-0.25l7.556,167.111l92.163,-14.002l91.492,14.002l7.164,-166.861Z" style="fill:#e3e1db;fill-rule:nonzero;"/></g><g transform="matrix(1,0,0,1,-251.479,57.0752)"><path d="M343.549,470.496l3.127,9.402l-18.691,0.036l3.043,-9.479l12.521,0.041Z" style="fill:#ad2125;fill-rule:nonzero;"/></g><g transform="matrix(1,0,0,1,-251.479,57.0752)"><path d="M457.547,470.496l3.127,9.402l-18.691,0.036l3.043,-9.479l12.521,0.041Z" style="fill:#ad2125;fill-rule:nonzero;"/></g><g transform="matrix(1,0,0,1,-251.479,57.0752)"><path d="M397.825,358.602l60.792,-0.079l6,54.307l-66.631,-0.14l-0.161,-54.088Z" style="fill:#313156;fill-rule:nonzero;"/></g><g transform="matrix(1,0,0,1,-251.479,57.0752)"><path d="M392.993,358.602l-61.043,-0.079l-6,54.307l66.882,-0.14l0.161,-54.088Z" style="fill:#313156;fill-rule:nonzero;"/></g><g transform="matrix(1,0,0,1,-251.479,57.0752)"><g opacity="0.300003"><path d="M387.984,358.64l-61.208,46.556l5.175,-46.755l56.033,0.199Z" style="fill:#0d1824;fill-rule:nonzero;"/></g></g><g transform="matrix(1,0,0,1,-251.479,57.0752)"><g opacity="0.300003"><path d="M392.891,397.012l-9.573,9.149l-1.248,6.551l10.769,0.021l0.052,-15.721Z" style="fill:#0d1824;fill-rule:nonzero;"/></g></g><g transform="matrix(1,0,0,1,-251.479,57.0752)"><g opacity="0.300003"><path d="M397.983,412.742l66.717,0.109l-6.016,-54.343l-25.484,0.046l-35.276,33.645l0.059,20.543Z" style="fill:#0d1824;fill-rule:nonzero;"/></g></g><g transform="matrix(1,0,0,1,-251.479,57.0752)"><path d="M392.903,395.63l-17.053,17.076l6.219,-0.015l10.779,-10.818l0.055,-6.243Z" style="fill:#494a72;fill-rule:nonzero;"/></g><g transform="matrix(1,0,0,1,-251.479,57.0752)"><path d="M397.917,396.787l38.104,-38.24l-6.098,0.012l-31.993,32.037l-0.013,6.191Z" style="fill:#494a72;fill-rule:nonzero;"/></g><g transform="matrix(1,0,0,1,-251.479,57.0752)"><path d="M408.033,449.351c0,6.996 -5.671,12.667 -12.667,12.667c-6.995,0 -12.666,-5.671 -12.666,-12.667c0,-6.995 5.671,-12.666 12.666,-12.666c6.996,0 12.667,5.671 12.667,12.666" style="fill:#2a2b2a;fill-rule:nonzero;"/></g><g transform="matrix(1,0,0,1,-251.479,57.0752)"><path d="M312.788,336.024c0,2.903 -2.354,5.256 -5.254,5.256c-2.903,0 -5.256,-2.353 -5.256,-5.256c0,-2.899 2.353,-5.254 5.256,-5.254c2.9,0 5.254,2.355 5.254,5.254" style="fill:#ad2125;fill-rule:nonzero;"/></g><g transform="matrix(1,0,0,1,-251.479,57.0752)"><path d="M488.788,336.024c0,2.903 -2.354,5.256 -5.254,5.256c-2.903,0 -5.256,-2.353 -5.256,-5.256c0,-2.899 2.353,-5.254 5.256,-5.254c2.9,0 5.254,2.355 5.254,5.254" style="fill:#ad2125;fill-rule:nonzero;"/></g></g></g></svg>

<?xml version="1.0" encoding="UTF-8" standalone="no"?>
<!DOCTYPE svg PUBLIC "-//W3C//DTD SVG 1.1//EN" "http://www.w3.org/Graphics/SVG/1.1/DTD/svg11.dtd">
<svg width="100%" height="100%" viewBox="0 0 320 420" version="1.1" xmlns="http://www.w3.org/2000/svg" xmlns:xlink="http://www.w3.org/1999/xlink" xml:space="preserve" xmlns:serif="http://www.serif.com/" style="fill-rule:evenodd;clip-rule:evenodd;stroke-linejoin:round;stroke-miterlimit:2;">
    <g id="streetcar-outbound" transform="matrix(1.27,0,0,1.27,-22.88,-342)">
        <g transform="matrix(1,0,0,1,-251.479,57.0752)">
            <path d="M353.09,230.668L386.174,296.002L391.424,296.002L358.424,230.668" style="fill:rgb(42,43,42);fill-rule:nonzero;"/>
        </g>
        <g transform="matrix(1,0,0,1,-251.479,57.0752)">
            <path d="M436.424,230.668L403.34,296.002L398.09,296.002L431.09,230.668" style="fill:rgb(42,43,42);fill-rule:nonzero;"/>
        </g>
        <g transform="matrix(1,0,0,1,-251.479,57.0752)">
            <path d="M430.998,232.75L461.31,233L466.77,244.821L471.999,244.188L463.977,227.928L325.777,227.928L317.755,244.188L322.983,244.821L328.444,233L352.756,232.75" style="fill:rgb(42,43,42);fill-rule:nonzero;"/>
        </g>
        <g transform="matrix(1,0,0,1,-251.479,57.0752)">
            <path d="M490.286,360.847L511.662,359.737L511.873,367.56L516.101,366.925L516.078,353.666L490.074,356.408L490.286,360.847Z" style="fill:rgb(243,242,236);fill-rule:nonzero;"/>
        </g>
        <g transform="matrix(1,0,0,1,-251.479,57.0752)">
            <path d="M519.273,366.29L518.426,387.628L503.416,389.741L500.668,369.251L519.273,366.29Z" style="fill:rgb(243,242,236);fill-rule:nonzero;"/>
        </g>
        <g transform="matrix(1,0,0,1,-251.479,57.0752)">
            <path d="M515.284,384.857L506.76,386.07L504.426,372.274L515.617,370.368L515.284,384.857Z" style="fill:rgb(192,189,186);fill-rule:nonzero;"/>
        </g>
        <g transform="matrix(1,0,0,1,-251.479,57.0752)">
            <path d="M300.671,360.847L279.295,359.737L279.085,367.56L274.856,366.925L274.878,353.666L300.883,356.408L300.671,360.847Z" style="fill:rgb(243,242,236);fill-rule:nonzero;"/>
        </g>
        <g transform="matrix(1,0,0,1,-251.479,57.0752)">
            <path d="M271.684,366.29L272.531,387.628L287.541,389.741L290.29,369.251L271.684,366.29Z" style="fill:rgb(243,242,236);fill-rule:nonzero;"/>
        </g>
        <g transform="matrix(1,0,0,1,-251.479,57.0752)">
            <path d="M275.787,385.191L284.337,386.353L286.371,372.286L275.704,370.452L275.787,385.191Z" style="fill:rgb(192,189,186);fill-rule:nonzero;"/>
        </g>
        <g transform="matrix(1,0,0,1,-251.479,57.0752)">
            <path d="M452.777,542.925L441.326,542.925L441.559,518.514L454.718,518.725L452.777,542.925Z" style="fill:rgb(92,94,95);fill-rule:nonzero;"/>
        </g>
        <g transform="matrix(1,0,0,1,-251.479,57.0752)">
            <path d="M339.271,542.925L350.722,542.925L350.739,520.764L337.58,520.975L339.271,542.925Z" style="fill:rgb(92,94,95);fill-rule:nonzero;"/>
        </g>
        <g transform="matrix(1,0,0,1,-251.479,57.0752)">
            <path d="M304.037,517.525L304.576,529.315L487.054,529.545L487.692,517.525L396.701,499.523L304.037,517.525Z" style="fill:rgb(42,43,42);fill-rule:nonzero;"/>
        </g>
        <g transform="matrix(1,0,0,1,-251.479,57.0752)">
            <path d="M487.106,484.784L483.58,487.825L313.191,487.868L308.448,484.565L487.106,484.784Z" style="fill-rule:nonzero;"/>
        </g>
        <g transform="matrix(1,0,0,1,-251.479,57.0752)">
            <path d="M419.515,309.358L413.841,296.024L375.888,296.024L371.215,309.358L419.515,309.358Z" style="fill:rgb(243,242,236);fill-rule:nonzero;"/>
        </g>
        <g transform="matrix(1,0,0,1,-251.479,57.0752)">
            <path d="M295.534,329.69L300.673,421.107L490.699,420.857L495.7,329.524L474.95,308.524L316.869,308.19L295.534,329.69Z" style="fill:rgb(136,186,106);fill-rule:nonzero;"/>
        </g>
        <g transform="matrix(1,0,0,1,-251.479,57.0752)">
            <path d="M494.825,350.648L296.45,350.398L304.006,517.509L396.169,503.507L487.661,517.509L494.825,350.648Z" style="fill:rgb(227,225,219);fill-rule:nonzero;"/>
        </g>
        <g transform="matrix(1,0,0,1,-251.479,57.0752)">
            <path d="M343.549,470.496L346.676,479.898L327.985,479.934L331.028,470.455L343.549,470.496Z" style="fill:rgb(173,33,37);fill-rule:nonzero;"/>
        </g>
        <g transform="matrix(1,0,0,1,-251.479,57.0752)">
            <path d="M457.547,470.496L460.674,479.898L441.983,479.934L445.026,470.455L457.547,470.496Z" style="fill:rgb(173,33,37);fill-rule:nonzero;"/>
        </g>
        <g transform="matrix(1,0,0,1,-251.479,57.0752)">
            <path d="M397.825,358.602L458.617,358.523L464.617,412.83L397.986,412.691L397.825,358.602Z" style="fill:rgb(49,49,86);fill-rule:nonzero;"/>
        </g>
        <g transform="matrix(1,0,0,1,-251.479,57.0752)">
            <path d="M392.993,358.602L331.95,358.523L325.95,412.83L392.832,412.691L392.993,358.602Z" style="fill:rgb(49,49,86);fill-rule:nonzero;"/>
        </g>
        <g transform="matrix(1,0,0,1,-251.479,57.0752)">
            <g opacity="0.3">
                <path d="M387.984,358.64L326.776,405.196L331.951,358.441L387.984,358.64Z" style="fill:rgb(13,24,36);fill-rule:nonzero;"/>
            </g>
        </g>
        <g transform="matrix(1,0,0,1,-251.479,57.0752)">
            <g opacity="0.3">
                <path d="M392.891,397.012L383.318,406.161L382.07,412.712L392.839,412.733L392.891,397.012Z" style="fill:rgb(13,24,36);fill-rule:nonzero;"/>
            </g>
        </g>
        <g transform="matrix(1,0,0,1,-251.479,57.0752)">
            <g opacity="0.3">
                <path d="M397.983,412.742L464.7,412.851L458.684,358.508L433.2,358.554L397.924,392.199L397.983,412.742Z" style="fill:rgb(13,24,36);fill-rule:nonzero;"/>
            </g>
        </g>
        <g transform="matrix(1,0,0,1,-251.479,57.0752)">
            <path d="M392.903,395.63L375.85,412.706L382.069,412.691L392.848,401.873L392.903,395.63Z" style="fill:rgb(73,74,114);fill-rule:nonzero;"/>
        </g>
        <g transform="matrix(1,0,0,1,-251.479,57.0752)">
            <path d="M397.917,396.787L436.021,358.547L429.923,358.559L397.93,390.596L397.917,396.787Z" style="fill:rgb(73,74,114);fill-rule:nonzero;"/>
        </g>
        <g transform="matrix(1,0,0,1,-251.479,57.0752)">
            <path d="M408.033,449.351C408.033,456.347 402.362,462.018 395.366,462.018C388.371,462.018 382.7,456.347 382.7,449.351C382.7,442.356 388.371,436.685 395.366,436.685C402.362,436.685 408.033,442.356 408.033,449.351" style="fill:rgb(42,43,42);fill-rule:nonzero;"/>
        </g>
        <g transform="matrix(1,0,0,1,-251.479,57.0752)">
            <path d="M312.788,336.024C312.788,338.927 310.434,341.28 307.534,341.28C304.631,341.28 302.278,338.927 302.278,336.024C302.278,333.125 304.631,330.77 307.534,330.77C310.434,330.77 312.788,333.125 312.788,336.024" style="fill:rgb(173,33,37);fill-rule:nonzero;"/>
        </g>
        <g transform="matrix(1,0,0,1,-251.479,57.0752)">
            <path d="M488.788,336.024C488.788,338.927 486.434,341.28 483.534,341.28C480.631,341.28 478.278,338.927 478.278,336.024C478.278,333.125 480.631,330.77 483.534,330.77C486.434,330.77 488.788,333.125 488.788,336.024" style="fill:rgb(173,33,37);fill-rule:nonzero;"/>
        </g>
    </g>
</svg>
